X:1
T:Title
%%score { 1 | ( 2 3 ) }
L:1/8
M:9/8
K:C
V:1 treble nm="Grand Piano"
V:2 bass 
V:3 bass 
V:1
 z3 z3[Q:1/4=113] CEG | c3- c2 G E2 C | A3 G3[K:bass] [G,B,E]2 [F,B,D] | %3
 [E,C]3- [E,C]2 [E,C][K:treble] [G,CD]2 [G,B,D] |[M:3/4] [G,CE]6 |[M:3/8] CEG | %6
[M:9/8] c3- c2 e [^Fd]2 [Fc] | [GB]3 [Gd]3 [DG]2 E | D3- D2 G ^FGA |[M:3/4] G6 |[M:3/8] G2 G | %11
[M:9/8] d3- d2 d ded | [Ec]3 [Ec]3 E2 E | [CA]3- [CA]2 [CA] ABc |[M:3/4] B6 |[M:3/8] G2 G | %16
[M:9/8] [Ge]3- [Ge]2 [Gd] [Gc]2 [EG] | [GB]3 [FA]3 [Af]2 d | %18
 c3- c2 c [DB][Ec][Fd][Q:1/4=111][Q:1/4=109][Q:1/4=108][Q:1/4=106][Q:1/4=104][Q:1/4=103][Q:1/4=101][Q:1/4=99][Q:1/4=98] | %19
[M:3/4] [Ec]6[Q:1/4=96][Q:1/4=94][Q:1/4=93][Q:1/4=91][Q:1/4=89][Q:1/4=88][Q:1/4=86] |] %20
V:2
 z3 z3 C,E,G, | C3- C2 G, E,2 C, | [C,F,C]3 [C,E,C]3 G,,2 G,, | A,,3- A,,2 A,, G,,2 G,, | %4
[M:3/4] C,6 |[M:3/8] C,E,G, |[M:9/8][K:treble] C3- C2 [A,CG][K:bass] [D,A,]2 [D,D] | %7
 [G,D]3 [G,B,]3 [B,,G,]2 [C,G,C] | [D,G,B,]3- [D,G,B,]2 [D,B,D] A,B,[D,CD] |[M:3/4] [G,B,D]6 | %10
[M:3/8] G,2 G, |[M:9/8][K:treble] [G,B,F]3- [G,B,F]2 [G,B,F] [B,F][A,G][G,B,F] | %12
 [C,C]3 [C,G,]3 E,2 E, | z3 z3 .^F,3 |[M:3/4][K:treble] [G,D]6 |[M:3/8] [G,B,F]2 [G,B,F] | %16
[M:9/8][K:bass] [C,C]3- [C,C]2 [D,B,] [E,C]2 [C,C] | [F,C]3 [F,C]3 [D,D]2 [F,A,E] | %18
 [G,E]3- [G,E]2 [G,E] [G,,G,]2 [G,,G,] |[M:3/4] [C,G,]6 |] %20
V:3
 x9 | x9 | x9 | x9 |[M:3/4] x6 |[M:3/8] x3 |[M:9/8][K:treble] x6[K:bass] x3 | x9 | z3 z3 .[D,D]3 | %9
[M:3/4] x6 |[M:3/8] x3 |[M:9/8][K:treble] z3 z3 .G,3 | x9 | %13
 [A,,E,]3- [A,,E,]2 [A,,E,] [D,D]-[D,G,D][D,A,D] |[M:3/4][K:treble] x6 |[M:3/8] x3 | %16
[M:9/8][K:bass] x9 | x9 | x9 |[M:3/4] x6 |] %20

